X: 12
T:Cruiskin (#88), The
M:4/4
L:1/8
S:Sergt. James O'Neill manuscripts
K:G
Bc|d2 de dBAB|d2 de d2 BA|Beee efge|defa g2 g2|abag fagf|
egfe d2 BA|Beee egfe|defa g2 eg|edcB AcBA|G2 GG G2||

